outputs/icons/action/calendar_edit_round.svg

<svg xmlns="http://www.w3.org/2000/svg" width="1200" height="1200" fill="none"><path fill="#000" d="M950 200h-50v-50c0-27.614-22.385-50-50-50s-50 22.386-50 50v50H400v-50c0-27.614-22.386-50-50-50s-50 22.386-50 50v50h-50c-55.5 0-99.5 45-99.5 100l-.5 700c0 55 44.5 100 100 100h296.82l.925-.01c27.19-.495 49.075-22.685 49.075-49.99 0-27.3-21.885-49.5-49.07-50H300c-27.5 0-50-22.5-50-50V450h700v102.29l.065.015c1.33 26.425 23.18 47.445 49.935 47.445 27.615 0 50-22.385 50-50V300c0-55-45-100-100-100M700 1100v-83.32l245.745-245.745 83.32 83.32L783.32 1100zM1093.5 758.49c8.665 8.665 8.665 22.665 0 31.33l-40.66 40.66-83.32-83.32 40.66-40.66c8.665-8.665 22.665-8.665 31.33 0z"/></svg>

<svg width="1200" height="1200" viewBox="0 0 1200 1200" fill="none" xmlns="http://www.w3.org/2000/svg"><path d="M950 200H900V150C900 122.386 877.615 100 850 100C822.385 100 800 122.386 800 150V200H400V150C400 122.386 377.614 100 350 100C322.386 100 300 122.386 300 150V200H250C194.5 200 150.5 245 150.5 300L150 1000C150 1055 194.5 1100 250 1100H546.82L547.745 1099.99C574.935 1099.495 596.82 1077.305 596.82 1050C596.82 1022.7 574.935 1000.5 547.75 1000H300C272.5 1000 250 977.5 250 950V450H950V552.29L950.065 552.305C951.395 578.73 973.245 599.75 1000 599.75C1027.615 599.75 1050 577.365 1050 549.75V300C1050 245 1005 200 950 200Z" fill="black"/><path d="M700 1100V1016.68L945.745 770.935L1029.065 854.255L783.32 1100H700Z" fill="black"/><path d="M1093.5 758.49C1102.165 767.155 1102.165 781.155 1093.5 789.82L1052.84 830.48L969.52 747.16L1010.18 706.5C1018.845 697.835 1032.845 697.835 1041.51 706.5L1093.5 758.49Z" fill="black"/></svg>
